X:1
T:Étude op. 30 no 1
T:Étude op. 30 no 1
T:Joachim Andersen
C:Joachim Andersen
L:1/8
M:4/4
K:C
V:1 treble nm="Flûte" snm="Fl."
V:1
!mf! c4-"_cantabile" c/(e/a/e/ g/e/^f/e/ | g2- g/)(e'/b/d'/ c'/e/b/a/ g/e/c/G/) | %2
 c4- c/(e/a/e/ g/e/^f/e/ | g2- g/)(g'/^d'/=f'/ e'/b/=d'/c'/ e/g/c'/e'/) | %4
 d2- d/(f'/^c'/e'/"_cresc." d'/^g/b/a/ f/d/A/F/) | A2- A/(d'/^g/b/ a/e/=g/f/ d/A/F/D/) | %6
!f! .G/(f/^c/e/ d/B/a/g/ f/d/=c'/b/ a/g/e'/d'/ | %7
 c'/b/).a'/.g'/ .f'/.e'/.d'/.c'/!>(! .b/(g/f'/d'/ b/g/f/d/!>)! |!mf! c4- c/)(e/a/e/ g/e/^f/e/ | %9
 g2- g/)(e'/b/d'/ c'/e/b/a/ g/e/c/G/) | c4- c/(e/b/e/ a/e/^g/e/ | %11
 a2- a/)(e'/b/d'/ c'/e/b/a/ e/c/A/E/) | D2- D/(c/^G/B/ A/^F/e/d/"_cresc." c/d/^f/b/) | %13
 a2- a/(e'/b/d'/ c'/e/g/^f/ ^e/f/a/d'/) | g2- g/!f!(g'/^c'/=e'/ d'/g'/^a/=c'/ b/d'/^f/=a/ |1 %15
 g/b/)(^c/e/ d/g/^A/=c/!>(! B/a/g/^f/ =f/d/B/G/)!>)! :| %16
 (g/b/)(^c/e/ d/g/^A/=c/!>(! B/^F/G/B/ d/B/d/e/)!>)! ||!p! (f4 f/)(a/e'/a/ d'/a/^c'/a/ | %18
 d'2- d'/)(a'/e'/g'/ f'/^c'/e'/d'/ a/f/b/a/ | g4-!<(! g/)(f'/^c'/f'/ d'/f'/)(=c'/f'/!<)! | %20
 b2-!>(! b/)(a'/g'/^f'/ =f'/d'/b/g/!>)! f/d/B/G/) |!p! (f4 f/)(a/e'/a/ d'/a/^c'/a/ | %22
 d'2- d'/)(a'/e'/g'/ f'/^c'/e'/d'/ a/f/b/a/ | g4- g/)(f'/^c'/f'/ d'/f'/)"_cresc."(=c'/f'/) | %24
 (b/f'/)(a/f'/) (_a/f'/)(g/f'/) .e'/(^c'/e'/d'/ b/g/f/d/ |!mf! =c4- c/)(e/=a/e/ g/e/^f/e/ | %26
 g2- g/)(e'/b/d'/ c'/e/b/a/ g/e/c/B/) | _B4- B/(e/a/e/ g/e/^f/e/ | %28
 g2- g/)(e/d'/c'/ _b/^f/a/g/ e/c/=B/_B/ | A2- A/)(=f/c/a/ f/c'/c/a/ f/c'/a/f'/) | %30
 _A2- A/(^f/_e/c'/ f/_e'/e/c'/ f/e'/_a/^f'/) | G2- G/(=e/b/=a/"_cresc." g/e/c/e/ g/c'/e'/g'/) | %32
 F2- F/(d/=b/a/ g/d/B/d/ g/b/d'/g'/) |!f! E2- E/(^c/_b/a/) .G/(e/d'/^c'/) ._B/(g/f'/e'/) | %34
 .F/(^c'/e'/d'/)!>(! .F/(^g/=b/a/) .F/(e/=g/f/) .^F/(^c/e/d/)!>)! | %35
!mf! G2- G/(^f/a/g/ e/g/d'/c'/ a/g/e/c/ | G2- G/)!>(!(^f/a/g/ =f/g/e'/d'/ b/g/f/d/!>)! | %37
!p! c4- c/)((e/a/e/ g/e/^f/e/ | g2- g/))!mf!(e'/b/d'/!>(! c'/e/b/a/ g/=f/d/B/!>)! | %39
!p! c4- c/)(e/a/e/ g/e/^f/e/ | g2- g/)!mf!(g'/^d'/f'/!>(! e'/b/=d'/c'/ b/g/f/d/!>)! | %41
!p! c4- c/)(e/a/e/ g/e/c/A/ | G4- G/)(c/f/c/"_cresc." e/c/G/F/ | E4- E/)(G/d/G/ c/A/G/E/ | %44
!<(! C4- C/)(E/A/E/ G/c/e/g/!<)! |!mf! c'6) z2 |] %46

